static/img/people.svg

<svg version="1.1" viewBox="0 0 24 24" xmlns="http://www.w3.org/2000/svg" xmlns:xlink="http://www.w3.org/1999/xlink"><path d="m12 5.5a3.5 3.5 0 0 1 3.5 3.5 3.5 3.5 0 0 1-3.5 3.5 3.5 3.5 0 0 1-3.5-3.5 3.5 3.5 0 0 1 3.5-3.5m-7 2.5c0.56 0 1.08 0.15 1.53 0.42-0.15 1.43 0.27 2.85 1.13 3.96-0.5 0.96-1.5 1.62-2.66 1.62a3 3 0 0 1-3-3 3 3 0 0 1 3-3m14 0a3 3 0 0 1 3 3 3 3 0 0 1-3 3c-1.16 0-2.16-0.66-2.66-1.62 0.86-1.11 1.28-2.53 1.13-3.96 0.45-0.27 0.97-0.42 1.53-0.42m-13.5 10.25c0-2.07 2.91-3.75 6.5-3.75s6.5 1.68 6.5 3.75v1.75h-13v-1.75m-5.5 1.75v-1.5c0-1.39 1.89-2.56 4.45-2.9-0.59 0.68-0.95 1.62-0.95 2.65v1.75h-3.5m24 0h-3.5v-1.75c0-1.03-0.36-1.97-0.95-2.65 2.56 0.34 4.45 1.51 4.45 2.9v1.5z" fill="#fff"/></svg>

<?xml version="1.0" encoding="UTF-8" standalone="no"?>
<svg
   xmlns="http://www.w3.org/2000/svg"
   xmlns:xlink="http://www.w3.org/1999/xlink"
   version="1.1"
   viewBox="0 0 24 24"
   id="svg4">
  <defs
     id="defs8">
    <linearGradient
       id="linearGradient839">
      <stop
         style="stop-color:#aa5cc3;stop-opacity:1"
         offset="0"
         id="stop835" />
      <stop
         style="stop-color:#00a4dc;stop-opacity:0.99981534"
         offset="1"
         id="stop837" />
    </linearGradient>
    <linearGradient
       xlink:href="#linearGradient839"
       id="linearGradient841"
       x1="3.1829884"
       y1="8.4229994"
       x2="24"
       y2="20"
       gradientUnits="userSpaceOnUse" />
  </defs>
  <path
     d="M12,5.5A3.5,3.5 0 0,1 15.5,9A3.5,3.5 0 0,1 12,12.5A3.5,3.5 0 0,1 8.5,9A3.5,3.5 0 0,1 12,5.5M5,8C5.56,8 6.08,8.15 6.53,8.42C6.38,9.85 6.8,11.27 7.66,12.38C7.16,13.34 6.16,14 5,14A3,3 0 0,1 2,11A3,3 0 0,1 5,8M19,8A3,3 0 0,1 22,11A3,3 0 0,1 19,14C17.84,14 16.84,13.34 16.34,12.38C17.2,11.27 17.62,9.85 17.47,8.42C17.92,8.15 18.44,8 19,8M5.5,18.25C5.5,16.18 8.41,14.5 12,14.5C15.59,14.5 18.5,16.18 18.5,18.25V20H5.5V18.25M0,20V18.5C0,17.11 1.89,15.94 4.45,15.6C3.86,16.28 3.5,17.22 3.5,18.25V20H0M24,20H20.5V18.25C20.5,17.22 20.14,16.28 19.55,15.6C22.11,15.94 24,17.11 24,18.5V20Z"
     id="path2"
     style="fill-opacity:1;fill:url(#linearGradient841)" />
</svg>
